src/svg/pencil.svg

<svg height="16" width="14" xmlns="http://www.w3.org/2000/svg" viewBox="0 0 14 16">
  <path d="M0 12v3h3l8-8-3-3L0 12z m3 2H1V12h1v1h1v1z m10.3-9.3l-1.3 1.3-3-3 1.3-1.3c0.39-0.39 1.02-0.39 1.41 0l1.59 1.59c0.39 0.39 0.39 1.02 0 1.41z" />
</svg>

<?xml version="1.0" encoding="UTF-8" standalone="no"?>
<svg width="14px" height="16px" viewBox="0 0 14 16" version="1.1" xmlns="http://www.w3.org/2000/svg" xmlns:xlink="http://www.w3.org/1999/xlink">
    <!-- Generator: Sketch 3.7.1 (28215) - http://www.bohemiancoding.com/sketch -->
    <title>pencil</title>
    <desc>Created with Sketch.</desc>
    <defs></defs>
    <g id="Octicons" stroke="none" stroke-width="1" fill="none" fill-rule="evenodd">
        <g id="pencil" fill="#000000">
            <path d="M0,12 L0,15 L3,15 L11,7 L8,4 L0,12 L0,12 Z M3,14 L1,14 L1,12 L2,12 L2,13 L3,13 L3,14 L3,14 Z M13.3,4.7 L12,6 L9,3 L10.3,1.7 C10.69,1.31 11.32,1.31 11.71,1.7 L13.3,3.29 C13.69,3.68 13.69,4.31 13.3,4.7 L13.3,4.7 Z" id="Shape"></path>
        </g>
    </g>
</svg>
